icon_installer/data/icons/scalable/actions/show-camera-iso-symbolic.svg

<?xml version="1.0" encoding="UTF-8"?>
<svg height="16px" viewBox="0 0 16 16" width="16px" xmlns="http://www.w3.org/2000/svg">
    <path d="m 2.5 0 c -1.367188 0 -2.5 1.132812 -2.5 2.5 v 11 c 0 1.367188 1.132812 2.5 2.5 2.5 h 11 c 1.367188 0 2.5 -1.132812 2.5 -2.5 v -11 c 0 -1.367188 -1.132812 -2.5 -2.5 -2.5 z m 1.5 2 h 2 v 2 h 2 v 2 h -2 v 2 h -2 v -2 h -2 v -2 h 2 z m 9.859375 0.136719 c 0.089844 0.089843 0.140625 0.214843 0.140625 0.363281 v 11 c 0 0.292969 -0.207031 0.5 -0.5 0.5 h -11 c -0.148438 0 -0.273438 -0.050781 -0.359375 -0.136719 z m -5.859375 7.863281 v 2 h 5 v -2 z m 0 0" fill="#222222"/>
</svg>

<svg xmlns="http://www.w3.org/2000/svg" width="16" height="16"><path fill="#222" d="M2.5 0A2.518 2.518 0 0 0 0 2.5v11C0 14.867 1.133 16 2.5 16h11c1.367 0 2.5-1.133 2.5-2.5v-11C16 1.133 14.867 0 13.5 0zM4 2h2v2h2v2H6v2H4V6H2V4h2zm9.86.137A.5.5 0 0 1 14 2.5v11a.48.48 0 0 1-.5.5h-11a.498.498 0 0 1-.36-.137zM8 10v2h5v-2zm0 0"/></svg>
